X:1
T:The Gresford Disaster
M:6/8
L:1/8
K:C
 C| C E3/2 G/2 GFE| D C2- C2 C/2C/2| CEG cBA| G3- G2 G| ccc cBA| GAG E2 G/2G/2|\
 GDE FED| C3- C2||
